icons/fuck.svg

<svg width="24" height="24" viewBox="0 0 24 24" fill="none" xmlns="http://www.w3.org/2000/svg">
<path fill-rule="evenodd" clip-rule="evenodd" d="M12.5 3C12.3674 3 12.2402 3.05268 12.1464 3.14645C12.0527 3.24021 12 3.36739 12 3.5V12C12 12.5523 11.5523 13 11 13C10.4477 13 9.99999 12.5523 9.99999 12V9.5C9.99999 9.36739 9.94731 9.24021 9.85354 9.14645C9.75977 9.05268 9.6326 9 9.49999 9C9.36738 9 9.2402 9.05268 9.14643 9.14645C9.05267 9.24021 8.99999 9.36739 8.99999 9.5V13.5C8.99999 14.0523 8.55227 14.5 7.99999 14.5C7.99316 14.5 7.98635 14.4999 7.97955 14.4998C7.60663 14.5106 7.24271 14.3113 7.0607 13.9573L6.20369 12.2909C6.09603 12.1669 5.94766 12.0842 5.78419 12.0584C5.60076 12.0294 5.41334 12.0745 5.26316 12.1837C5.11298 12.293 5.01233 12.4574 4.98337 12.6408C4.95441 12.8242 4.9995 13.0116 5.10872 13.1618C5.13889 13.2033 5.16582 13.247 5.18928 13.2927L7.86481 18.4951C8.28971 19.1336 8.8833 19.6964 9.61295 20.1342C10.3404 20.5707 11.1796 20.8685 12.0709 21H14C15.3261 21 16.5978 20.4732 17.5355 19.5355C18.4732 18.5979 19 17.3261 19 16V10.5C19 10.3674 18.9473 10.2402 18.8535 10.1464C18.7598 10.0527 18.6326 10 18.5 10C18.3674 10 18.2402 10.0527 18.1464 10.1464C18.0527 10.2402 18 10.3674 18 10.5V12C18 12.5523 17.5523 13 17 13C16.4477 13 16 12.5523 16 12V9.5C16 9.36739 15.9473 9.24022 15.8535 9.14645C15.7598 9.05268 15.6326 9 15.5 9C15.3674 9 15.2402 9.05268 15.1464 9.14645C15.0527 9.24021 15 9.36739 15 9.5V12C15 12.5523 14.5523 13 14 13C13.4477 13 13 12.5523 13 12V3.5C13 3.36739 12.9473 3.24021 12.8535 3.14645C12.7598 3.05268 12.6326 3 12.5 3ZM15 7.0505V3.5C15 2.83696 14.7366 2.20107 14.2678 1.73223C13.7989 1.26339 13.163 1 12.5 1C11.8369 1 11.2011 1.26339 10.7322 1.73223C10.2634 2.20107 9.99999 2.83696 9.99999 3.5V7.0505C9.83664 7.01715 9.6692 7 9.49999 7C8.83695 7 8.20106 7.26339 7.73222 7.73223C7.26338 8.20107 6.99999 8.83696 6.99999 9.5V10.3973C6.72244 10.2409 6.41681 10.1335 6.09611 10.0829C5.38875 9.97117 4.66598 10.1451 4.08682 10.5663C3.50765 10.9875 3.11954 11.6215 3.00785 12.3289C2.90063 13.0079 3.05658 13.7012 3.44187 14.268L6.1107 19.4573C6.12627 19.4876 6.14337 19.5171 6.16194 19.5456C6.7655 20.4727 7.59714 21.2571 8.58395 21.8492C9.57056 22.4411 10.692 22.829 11.8633 22.9906C11.9086 22.9969 11.9543 23 12 23H14C15.8565 23 17.637 22.2625 18.9497 20.9497C20.2625 19.637 21 17.8565 21 16V10.5C21 9.83696 20.7366 9.20107 20.2678 8.73223C19.7989 8.26339 19.163 8 18.5 8C18.1937 8 17.8933 8.0562 17.6124 8.16288C17.5145 8.00826 17.3992 7.86368 17.2678 7.73223C16.7989 7.26339 16.163 7 15.5 7C15.3308 7 15.1633 7.01715 15 7.0505Z" fill="black"/>
</svg>

<svg
  width="24"
  height="24"
  viewBox="0 0 24 24"
  xmlns="http://www.w3.org/2000/svg"
>
  <path
    fill-rule="evenodd"
    clip-rule="evenodd"
    d="M12.5 3a.5.5 0 0 0-.5.5V12a1 1 0 1 1-2 0V9.5a.5.5 0 1 0-1 0v4a1 1 0 0 1-1.02 1 1 1 0 0 1-.92-.543l-.856-1.666a.7.7 0 0 0-1.095.87c.03.042.057.086.08.132l2.676 5.202a5.457 5.457 0 0 0 1.748 1.64A6.68 6.68 0 0 0 12.07 21H14a5 5 0 0 0 5-5v-5.5a.5.5 0 0 0-1 0V12a1 1 0 1 1-2 0V9.5a.5.5 0 0 0-1 0V12a1 1 0 1 1-2 0V3.5a.5.5 0 0 0-.5-.5zM15 7.05V3.5a2.5 2.5 0 0 0-5 0v3.55A2.5 2.5 0 0 0 7 9.5v.897a2.697 2.697 0 0 0-2.913.17 2.7 2.7 0 0 0-.645 3.701l2.669 5.19c.015.03.032.06.05.088a7.442 7.442 0 0 0 2.423 2.303c.987.592 2.108.98 3.28 1.142.045.006.09.009.136.009h2a7 7 0 0 0 7-7v-5.5a2.5 2.5 0 0 0-3.388-2.337A2.503 2.503 0 0 0 15 7.05z"
  />
</svg>
